src/assets/mediaicons/instagram.svg

<svg fill="none" height="31" viewBox="0 0 31 31" width="31" xmlns="http://www.w3.org/2000/svg" xmlns:xlink="http://www.w3.org/1999/xlink"><clipPath id="a"><path d="m0 0h31v31h-31z"/></clipPath><g clip-path="url(#a)" fill="#fff"><path d="m23.7066 5.53564c-1.0032 0-1.8179.81284-1.8179 1.81794 0 1.00509.8128 1.81793 1.8179 1.81793s1.8179-.81284 1.8179-1.81793c0-1.0051-.8128-1.81794-1.8179-1.81794z"/><path d="m15.6275 7.86572c-4.2088 0-7.63531 3.42458-7.63531 7.63338 0 4.2089 3.42451 7.6334 7.63531 7.6334 4.2107 0 7.6334-3.4245 7.6334-7.6334 0-4.2088-3.4246-7.63338-7.6334-7.63338zm0 12.52378c-2.6974 0-4.8903-2.193-4.8903-4.8904s2.1929-4.8903 4.8903-4.8903 4.8903 2.1929 4.8903 4.8903-2.1929 4.8904-4.8903 4.8904z"/><path d="m21.6876 31h-12.37713c-5.13399 0-9.31047-4.1765-9.31047-9.3105v-12.37903c0-5.13399 4.17648-9.31047 9.31047-9.31047h12.37713c5.134 0 9.3124 4.17648 9.3124 9.31047v12.37713c0 5.134-4.1784 9.3105-9.3124 9.3105zm-12.37713-28.0837c-3.52736 0-6.39417 2.86872-6.39417 6.39417v12.37713c0 3.5274 2.86872 6.3942 6.39417 6.3942h12.37713c3.5274 0 6.3961-2.8687 6.3961-6.3942v-12.37713c0-3.52545-2.8687-6.39417-6.3961-6.39417z"/></g></svg>

<svg width="31" height="31" viewBox="0 0 31 31" fill="none" xmlns="http://www.w3.org/2000/svg">
<g clip-path="url(#clip0_320_2)">
<path d="M23.7066 5.53564C22.7034 5.53564 21.8887 6.34848 21.8887 7.35358C21.8887 8.35867 22.7015 9.17151 23.7066 9.17151C24.7117 9.17151 25.5245 8.35867 25.5245 7.35358C25.5245 6.34848 24.7117 5.53564 23.7066 5.53564Z" fill="white"/>
<path d="M15.6275 7.86572C11.4187 7.86572 7.99219 11.2903 7.99219 15.4991C7.99219 19.708 11.4167 23.1325 15.6275 23.1325C19.8382 23.1325 23.2609 19.708 23.2609 15.4991C23.2609 11.2903 19.8363 7.86572 15.6275 7.86572ZM15.6275 20.3895C12.9301 20.3895 10.7372 18.1965 10.7372 15.4991C10.7372 12.8017 12.9301 10.6088 15.6275 10.6088C18.3249 10.6088 20.5178 12.8017 20.5178 15.4991C20.5178 18.1965 18.3249 20.3895 15.6275 20.3895Z" fill="white"/>
<path d="M21.6876 31H9.31047C4.17648 31 0 26.8235 0 21.6895V9.31047C0 4.17648 4.17648 0 9.31047 0H21.6876C26.8216 0 31 4.17648 31 9.31047V21.6876C31 26.8216 26.8216 30.9981 21.6876 30.9981V31ZM9.31047 2.9163C5.78311 2.9163 2.9163 5.78502 2.9163 9.31047V21.6876C2.9163 25.215 5.78502 28.0818 9.31047 28.0818H21.6876C25.215 28.0818 28.0837 25.2131 28.0837 21.6876V9.31047C28.0837 5.78502 25.215 2.9163 21.6876 2.9163H9.31047Z" fill="white"/>
</g>
<defs>
<clipPath id="clip0_320_2">
<rect width="31" height="31" fill="white"/>
</clipPath>
</defs>
</svg>
